Sardi Mono Papirus Dark/16x16/actions/format-break-node.svg

<?xml version="1.0" encoding="UTF-8" standalone="no"?>
<svg xmlns="http://www.w3.org/2000/svg" width="16" height="16" viewBox="0 0 16 16">
 <defs>
  <style type="text/css" id="current-color-scheme">
   .ColorScheme-Text { color:#d3dae3; }
  </style>
 </defs>
 <path style="fill:currentColor;opacity:1" class="ColorScheme-Text" d="M 5 1.0039062 L 5 3.0039062 L 1 3.0039062 L 1 4.0039062 L 5 4.0039062 L 5 6.0039062 L 11 6.0039062 L 11 4.0039062 L 15 4.0039062 L 15 3.0039062 L 11 3.0039062 L 11 1.0039062 L 5 1.0039062 z M 6 7.0039062 L 8 10.003906 L 10 7.0039062 L 6 7.0039062 z M 1 10.003906 L 1 15.003906 L 6 15.003906 L 6 13.003906 L 7 13.003906 L 7 12.003906 L 6 12.003906 L 6 10.003906 L 1 10.003906 z M 10 10.003906 L 10 12.003906 L 9 12.003906 L 9 13.003906 L 10 13.003906 L 10 15.003906 L 15 15.003906 L 15 10.003906 L 10 10.003906 z"/>
</svg>

<?xml version="1.0" encoding="UTF-8" standalone="no"?>
<!-- Created with Inkscape (http://www.inkscape.org/) -->
<svg id="svg3049" xmlns:rdf="http://www.w3.org/1999/02/22-rdf-syntax-ns#" xmlns="http://www.w3.org/2000/svg" height="16" width="16" version="1.1" xmlns:cc="http://creativecommons.org/ns#" xmlns:dc="http://purl.org/dc/elements/1.1/">
 <defs id="defs3051">
  <style id="current-color-scheme" type="text/css">.ColorScheme-Text {
        color:#4d4d4d;
      }
      .ColorScheme-Background {
        color:#eff0f1;
      }
      .ColorScheme-Highlight {
        color:#3daee9;
      }
      .ColorScheme-ViewText {
        color:#31363b;
      }
      .ColorScheme-ViewBackground {
        color:#fcfcfc;
      }
      .ColorScheme-ViewHover {
        color:#93cee9;
      }
      .ColorScheme-ViewFocus{
        color:#3daee9;
      }
      .ColorScheme-ButtonText {
        color:#31363b;
      }
      .ColorScheme-ButtonBackground {
        color:#eff0f1;
      }
      .ColorScheme-ButtonHover {
        color:#93cee9;
      }
      .ColorScheme-ButtonFocus{
        color:#3daee9;
      }</style>
 </defs>
 <metadata id="metadata3054">
  <rdf:RDF>
   <cc:Work rdf:about="">
    <dc:format>image/svg+xml</dc:format>
    <dc:type rdf:resource="http://purl.org/dc/dcmitype/StillImage"/>
    <dc:title/>
   </cc:Work>
  </rdf:RDF>
 </metadata>
 <g id="layer1" transform="translate(-421.71 -531.79)">
  <g id="layer1-0" transform="matrix(.75 0 0 0.75 421.46 -241.23)">
   <g id="layer1-6" transform="translate(6.2938e-7 -.00020410)">
    <path id="path4133-6-5" opacity=".72" d="m5 1v2h-4v1h4v2h6v-2h4v-1h-4v-2zm1 6 2 3 2-3zm-5 3v5h5v-2h1v-1h-1v-2zm9 0v2h-1v1h1v2h5v-5z" fill-rule="evenodd" transform="matrix(1.3333 0 0 1.3333 .33333 1030.7)" fill="#fff"/>
   </g>
  </g>
 </g>
</svg>
